X: 1929
T: Arrane Ben-Vlieaun
R: waltz
M: 3/4
K: Gmajor
GA|B2 B2 AG|E2 E2 GE|D3D GB|A4 GA|
B2 B2 AG|E2 E2 GE|D2 D2 EG|G4 GB|
d2 d2 ed|B2 B2 GB|d2 d2 ed|A4 GA|
B2 B2 AG|E2 E2 GE|D2 D2 EG G4||

